!!!SOCIAL_FUNCTION:	deer dance songs
!!!PDT:	1932
!!!OTL: No_59_Dance_of_the_Water_Bug.krn
!!!REG: Southwest
!!!LANG: Non-Tone
!!!LING_GROUP: Yuman-Cochimi
**kern	**kern
*staff2	*staff1
=1-	=1-
*clefF4	*clefF4
*k[f#c#g#d#a#]	*k[f#c#g#d#a#]
*M3/4	*M3/4
2r	2r
4GG#/	8r
.	8B\
=2	=2
4GG#/	8G#\L
.	8A#\J
4GG#/	8G#\L
.	8G#\J
4GG#/	4G#\
=3||	=3||
*M2/4	*M2/4
4GG#/	4B\
4r	16A#\
.	16r
.	8c#\
=4	=4
4GG#/	4B\
4GG#/	8B\L
.	8G#\J
=5	=5
4GG#/	8A#\L
.	8A#\J
4r	8G#\
.	8r
=6||	=6||
*M3/4	*M3/4
4GG#/	8G#\L
.	8G#\J
4GG#/	4G#\
4GG#/	4G#\
=7||	=7||
*M2/4	*M2/4
4GG#/	8A#\L
.	8A#\J
4r	16G#\
.	16r
.	8A#\
=8	=8
4GG#/	8A#\L
.	8G#\J
4GG#/	4G#\
=9||	=9||
*M3/4	*M3/4
4GG#/	4G#\
4r	8E\
.	8r
4GG#/	8E\L
.	8E\J
=10||	=10||
*M2/4	*M2/4
4GG#/	4G#\
4GG#/	4G#\
=11	=11
4GG#/	4G#\
4r	16E\
.	16r
.	8G#\
=12	=12
4GG#/	8G#\L
.	8G#\J
4GG#/	4G#\
=13||	=13||
*M3/4	*M3/4
4r	4G#\
4r	4r
4r	8r
.	8B\
=14!|:	=14!|:
*M2/4	*M2/4
4GG#/	8G#\L
.	8G#\J
4GG#/	4G#\
=15	=15
4GG#/	4B\
4r	16A#\
.	16r
.	8c#\
=16	=16
4GG#/	8B\L
.	8B\J
4GG#/	4B\
=17	=17
4GG#/	4A#\
4r	8G#\
.	8r
=18||	=18||
*M3/4	*M3/4
4GG#/	8A#\L
.	8G#\J
4GG#/	4G#\
4GG#/	4G#\
=19||	=19||
*M2/4	*M2/4
4GG#/	8A#\L
.	8G#\J
4r	16G#\
.	16r
.	8B\
=20	=20
4GG#/	4A#\
4GG#/	4A#\
=21	=21
4GG#/	4A#\
4r	8E\
.	8r
=22||	=22||
*M3/4	*M3/4
4GG#/	8G#\L
.	8G#\J
4GG#/	4G#\
4GG#/	4E\
=23||	=23||
*M2/4	*M2/4
4GG#/	4G#\
4r	16E\
.	16r
.	8G#\
=24	=24
4GG#/	8G#\L
.	8G#\J
4GG#/	4G#\
=25||	=25||
*M3/4	*M3/4
4GG#/	4G#\
4GG#/	4r
4r	8r
.	8B\
=26:|!	=26:|!
=	=
*M2/4	*M2/4
4GG#/	4G#\
4GG#/	4r
==	==
*-	*-
